X:1
T:Title
%%score 1 { 2 | 3 }
L:1/8
Q:1/4=102
M:4/4
K:C
V:1 treble nm="Grand Piano, Soprano"
V:2 bass nm="Choir Pad, On the Rock (Warren)"
V:3 bass 
V:1
 [EG]>[EG] [Ec]>[Ec] [Ec]>[Ec] [Ec]2 | [Fd]2 [Ge]4 [Ec]2 | C>[CD] [CE]>[C_E] [C=E]>[DF] [CE]2 | %3
w: By~Barney~Elliott~Warren * * * * * *|||
 [B,D]2 [G,C]6 | [EG]>[EG] [Ec]>[Ec] [Ec]>[Ec] [Ec]2 | [Fd]2 [Ge]4 [Ec]2 | %6
w: |||
 C>[CD] [CE]>[C_E] [C=E]>[DF] [CE]2 | [B,D]2 [G,C]6 | [CE]>[DF] [EG]6 | [Ge]2 [Ec]2 [EG]2 [EG]2 | %10
w: ||||
 [CE]>[EG] [DF]6 | [EG]2 [DF]2 [B,D]2 [CE]2 | [CE]>[DF] [EG]6 | [Ge]2 [Ec]2 [EG]2 [FA]2 | %14
w: ||||
 [Ac]>[FA] [EG]2- [EG][Ge] [Fd]2 | (3[DF-B-][EFB-][FB] [Ec]6- | [Ec]2 z2 z4 |] %17
w: |||
V:2
 C>C G,>G, G,>G, G,2 | G,2 C4 G,2 | E,>F, G,>^F, G,>G, G,2 | F,2 E,6 | C>C G,>G, G,>G, G,2 | %5
 G,2 C4 G,2 | E,>F, G,>^F, G,>G, G,2 | F,2 E,6 | G,>G,[K:treble] C2 C2 C2 | C2 C2 C2 C2 | %10
 G,>G, G,2 G,2 G,2 | G,2 G,2 G,2 G,2 | G,>G,[K:treble] C2 C2 C2 | C2 C2 C2 C2 | %14
 C2 C2- C[K:bass]C B,2 | G,2 G,6- | G,2 z2 z4 |] %17
V:3
 C,>C, C,>C, C,>C, C,2 | C,2 C,4 C,2 | C,>C, C,>C, C,>C, G,,2 | G,,2 C,6 | C,>C, C,>C, C,>C, C,2 | %5
 C,2 C,4 C,2 | C,>C, C,>C, C,>C, G,,2 | G,,2 C,6 | C,>C, C,2 C,2 C,2 | C,2 C,2 C,2 C,2 | %10
 C,>C, G,,2 G,,2 G,,2 | G,,2 G,,2 G,,2 C,2 | C,>C, C,2 C,2 C,2 | C,2 C,2 C,2 F,2 | %14
 F,2 G,2- G,G, [G,,G,]2 | G,,2 C,6- | C,2 z2 z4 |] %17

